X:2109
T:Furlana di Migliara
O:england
C:La Piva dal Carner: La pégra 4c
M:6/8
L:1/8
K:C
G|e3-e2G|e3-e2c|d2d fed|e2c c2G|\
e3-e2G|e3-e2c|d2d fed|1 c3-c2G:|2 c3 cB_B||
A3 BcA|G2B


